X:1
T:Title
%%score ( 1 2 ) { 3 | 4 }
L:1/8
Q:1/4=102
M:4/4
K:A
V:1 treble nm="Grand Piano, Soprano"
V:2 treble 
V:3 bass nm="Choir Pad, Chiswick Park, 87.87.87"
V:4 bass 
V:1
 EFGA [DA]2 [DG]2 | DAGF [=CF]2 [^CE]2 | EFEF [CE][Gc]Bd | [Ec]2 [DB]2 [CA]4 | .A2 .A2 z2 .d2 | %5
w: By~Susan~C.~Umlauf,~before~1917 * * * * *|||||
 [EA]2 [E=G]2 [DF]2 [EF]2 | z2 .A2 .B2 .F2 | .^D2 .G2 e2 E2 | A,-[A,F]GA [DA]2 [DG]2 | %9
w: ||||
 FAGF [=CF]2 EA | ecBA [Af]2 [A^e]2 | ecB-[GB] [EA]4- | [EA]4 z4 |] %13
w: ||||
V:2
 C2 C2 z4 | z2 D2 z4 | C2 D2 z2 F2 | x8 | C-[CB]C-[CB] [DA]2 F-[FB] | x8 | %6
 [^DF][=DG]^D-[D^A] B,-[B,G]E-[Ec] | B-[AB]B-[FB] E=DCB, | .E2 C2 z4 | D2 D2 z2 ^C2 | =G2 G2 z4 | %11
 A2 .A2 z4 | x8 |] %13
V:3
 A,2 E,^E, F,2 B,2 | E,2 B,E, ^D,2 E,2 | A,F, G,2 A,^A, B,2 | A,E,F,G, A,4 | A,2 A,2 A,2 A,2 | %5
 A,2 A,2 A,2 ^A,2 | A,^E,F,=G, ^G,E,CA, | F,CB,A, G,F,E,D, | C,2 E,^E, F,2 B,2 | %9
 E,2 B,E, ^D,2 E,2 | C2 C2 A,2 B,=C | C2 ^D=D C4- | C4 z4 |] %13
V:4
 A,,2 A,,2 A,,2 A,,2 | A,,2 A,,2 A,,2 A,,2 | A,,A,, B,,2 C,2 D,B,, | .E,2 E,2 A,,4 | %4
 =G,2 E,^E, F,2 D,2 | C,A,,B,,C, D,2 C,2 | B,,2 B,,2 .B,,2 A,,=G,, | B,,2 B,,2 E,,2 z2 | %8
 A,,2 A,,2 A,,2 A,,2 | A,,2 A,,2 A,,2 A,,2 | A,,2 A,,2 D,2 ^D,2 | E,2 F,E, A,,4- | A,,4 z4 |] %13

